X:1
T:ПОСЛѢДНЕЕ ТАНГО
T:ПОСЛѢДНЕЕ ТАНГО
T:(Танго Смерти)
T:Муа. ДОЛУАРЪ.
C:Муа. ДОЛУАРЪ.
%%score { ( 1 3 ) | 2 }
L:1/8
Q:1/4=90
M:2/4
K:G
V:1 treble nm="Piano" snm="Pno."
V:3 treble 
V:2 bass 
V:1
"^Allegro ma non troppo."!f! B, |!<(! (3E3/2^D/E (3FGA!<)! | B2 (3edc | B2!>(! (3AGA | %4
 B2- !fermata!B!>)!!p! B, ||!<(! E>F G/G/A/B/!<)! |!>(! BF z B,!>)! | F>G A/A/B/c/ | c B2 B | %9
 B>^G E/G/B/c/ | BA- A/A/A/G/ | [^CF]2!>(! C2 | F3!>)! B, |!p! E>F G/G/A/B/ | B F2 B, | %15
!<(! F>G A/A/B/c/!<)! |!>(! c B2 B!>)! | B>^G E/G/B/c/ | BA- A/A/A/G/ | [A,CF]2 [A,^DG]2 | %20
 [G,B,E]2 z/ B,/!fermata!B/^G/ ||[K:E] [A,F]/[A,F]/z/[G,E]/ [G,D]/[G,E]/[G,F]/[G,G]/ | %22
 [G,C][G,C] z/ B,/B/G/ | [G,F]/[G,F]/z/[G,E]/ [G,D]/[G,E]/[G,F]/[G,G]/ | [A,D]2- [A,D]/B,/D/F/ | %25
!<(! A>G G/F/F/^E/!<)! |!>(! GF- F/F/^E/F/!>)! | G>F E/D/C/=C/ | [B,D]2 z/!mf! B,/!fermata!B/G/ | %29
!<(! [A,F]/[A,F]/z/[G,E]/ [G,D]/[G,E]/[G,F]/[G,G]/!<)! | [G,C][G,C] z/ C/C/=D/ | %31
!<(! =D>C ^B,/C/^E/G/!<)! |!f! A2 A/C/F/G/ |!>(! [=CA]/[CA]/z/[CG]/ [CF]/[CG]/[CA]/[CB]/ | %34
 [B,EG]/[B,EG]/z/[B,F]/ [B,E]/[B,F]/[B,G]/[B,A]/!>)! | F>F!>(! FG | E2-!>)! E |] %37
V:2
 B,, | (3E,3/2^D,/E, (3F,G,A, | B,2 [F,,F,]2 | [B,,F,]2 F,2 | B,,2 !fermata!B,,, z || %5
 (E,,>B,,[E,G,]D,) | (^D,,>B,,[^D,A,]B,,) | (B,,,>B,,[^D,A,]B,,) | (E,,>B,,[E,G,]D,) | %9
"^cresc." (^G,,E,) (E,,E,) | (A,,>E,A,E,) | (^A,,>^C,F,C,) | (B,,A,,G,,F,,) | (E,,>B,,[E,G,]D,) | %14
 (^D,,>B,,F,B,,) | (^D,,>B,,F,B,,) | (E,,>B,,[E,G,]D,) | ^G,,E, E,,E, | A,,>E,A,E, | %19
 [A,,,A,,]2 [B,,,B,,]2 | E,B,, E,, z ||[K:E] E,,B,, B,,,B,, |"^stacc. sempre" E,,B,, B,,,B,, | %23
 E,,B,, B,,,B,, | F,,B,, B,,,B,, | F,,B,, B,,,B,, | F,,B,, B,,,B,, | D,,B,, B,,,B,, | %28
 E,,B,, B,,, z | E,,B,, B,,,B,, | E,,B,, B,,, z | ^E,,C, C,,C, | F,,C, F,2 | F,,>=C,E,C, | %34
 B,,,z/B,,/G,B,, | =C,E, B,,B,,, | E,,B,, E, |] %37
V:3
 x | x4 | x2 [EAc]2 | [^DF]2 [CE]2 | [B,^D]2- [B,D] x || x4 | x4 | x4 | x4 | D2 D2 | C2 C2 | x4 | %12
 [A,^D](=CB,C) | G,2 x2 | x4 | x4 | x4 | D2 D2 | C2 C2 | x4 | x4 ||[K:E] x4 | x4 | x4 | x4 | %25
 C2 ^^C2 | [A,D]2 [A,D]2 | [A,B,]2 [A,B,]2 | x4 | x4 | x4 | G,2 x2 | [CF]2- [CF] z | x4 | x4 | %35
 [A,E]2 [A,D]2 | G,2- G, |] %37

